**kern	**kern
*staff2	*staff1
*clefF4	*clefG2
*k[f#]	*k[f#]
*met(c|)	*met(c|)
*M2/2	*M2/2
*G:	*G:
=-	=-
4..E 4..B 4..d 4..e	4GGG# 4GG#
.	4GG#
16e	.
4..E 4..B 4..d 4..e	4GGG# 4GG#
.	4GG#
16e	.
=178	=178
4E 4A 4c [4e	2AAA 2AA
32eLLL]	.
32d	.
32c	.
32BJJ	.
32ALL	.
32B	.
32c	.
32dJJJ	.
32eLLL	2r
32f#	.
32g#	.
32aJJ	.
32bLL	.
32cc	.
32dd	.
32eeJJJ	.
24ff#LL	.
24gg#	.
24aaJ	.
24bbL	.
24ccc	.
24dddJJ	.
*	*clefG2
=179	=179
4eee	4e 4g# 4dd
4eee	4e 4g# 4dd
4eee	4e 4g# 4dd
4eee	4e 4g# 4dd
=180	=180
(4.eee	4a 4cc
.	4r
8ccc)	.
8aa	2r
8r	.
4r	.
*clefF4	*clefF4
=181	=181
4..D 4..A 4..c 4..d	4FFF# 4FF#
.	4FF#
16d	.
4..D 4..A 4..c 4..d	4FFF# 4FF#
.	4FF#
16d	.
=182	=182
4D 4G 4B [4d	2GGG 2GG
32dLLL]	.
32c	.
32B	.
32AJJ	.
32GLL	.
32A	.
32B	.
32cJJJ	.
*clefG2	*
32dLLL	2r
32e	.
32f#	.
32gJJ	.
32aLL	.
32b	.
32cc	.
32ddJJJ	.
24eeLL	.
24ff#	.
24ggJ	.
24aaL	.
24bb	.
24cccJJ	.
*	*clefG2
=183	=183
(8ddd'L	4d 4f# 4cc
8ddd'	.
8ddd'	4d 4f# 4cc
8ddd'J	.
8ddd'L	4d 4f# 4cc
8ddd'	.
8ddd'	4d 4f# 4cc
8ddd'J)	.
=184	=184
(8.dddL	4g 4b
16bbJk	.
32dddLLL	4r
32bb	.
32ddd	.
32bbJJ	.
32dddLL	.
32bb	.
32ddd	.
32bbJJJ	.
8gg)	2r
8r	.
4r	.
=185	=185
*-	*-
